src/assets/duotone/Book1.svg

<?xml version="1.0" encoding="UTF-8"?>
<svg width="24" height="24" viewBox="0 0 24 24" xmlns="http://www.w3.org/2000/svg">
 <path d="m20.5 7v8h-14.15c-1.57 0-2.85 1.28-2.85 2.85v-10.85c0-4 1-5 5-5h7c4 0 5 1 5 5z" opacity=".4"/>
 <path d="m20.5 15v3.5c0 1.93-1.57 3.5-3.5 3.5h-10c-1.93 0-3.5-1.57-3.5-3.5v-0.65c0-1.57 1.28-2.85 2.85-2.85h14.15z"/>
 <path d="m16 7.75h-8c-0.41 0-0.75-0.34-0.75-0.75s0.34-0.75 0.75-0.75h8c0.41 0 0.75 0.34 0.75 0.75s-0.34 0.75-0.75 0.75z"/>
 <path d="m13 11.25h-5c-0.41 0-0.75-0.34-0.75-0.75s0.34-0.75 0.75-0.75h5c0.41 0 0.75 0.34 0.75 0.75s-0.34 0.75-0.75 0.75z"/>
</svg>

<svg width="24" height="24" viewBox="0 0 24 24"  xmlns="http://www.w3.org/2000/svg">
<path opacity="0.4" d="M20.5 7V15H6.35C4.78 15 3.5 16.28 3.5 17.85V7C3.5 3 4.5 2 8.5 2H15.5C19.5 2 20.5 3 20.5 7Z" />
<path d="M20.5 15V18.5C20.5 20.43 18.93 22 17 22H7C5.07 22 3.5 20.43 3.5 18.5V17.85C3.5 16.28 4.78 15 6.35 15H20.5Z" />
<path d="M16 7.75H8C7.59 7.75 7.25 7.41 7.25 7C7.25 6.59 7.59 6.25 8 6.25H16C16.41 6.25 16.75 6.59 16.75 7C16.75 7.41 16.41 7.75 16 7.75Z" />
<path d="M13 11.25H8C7.59 11.25 7.25 10.91 7.25 10.5C7.25 10.09 7.59 9.75 8 9.75H13C13.41 9.75 13.75 10.09 13.75 10.5C13.75 10.91 13.41 11.25 13 11.25Z" />
</svg>
